X: 593
T: Nao wugeng
L: 1/8
M: 2/4
K: G
G A B G [I:setbarnb 1]| 
A2A2 | 
B2B2 | 
A B A G | 
E4 | 
GG2A | 
B d B A | 
B d A G | 
E4 | 
A GE2 | 
G2B A | 
G B A G | 
AD2E | 
G G A E | 
D4 |]

@@@ Tune index: 9467
